X: 40167
T: Tim The Turncoat
R: hornpipe
M: 4/4
K: Gmajor
B>d|(3gfg b>g e2 d>c|B>cd>B G2 G2|D>GB>D D>GB>G|d>cB>c A2 d2|
(3gfg b>g e2 d>c|B>cd>B G2 G2|F>GA>B c>Bc>e|d>cA>F G2:|
B>c|d>cd>e d>BG>B|c2 B>c A>F D2|G2 B>c d>ef>g|a>gf>e d>cB>c|
d>cd>e d>BG>B|c2 B>c A>F D2|G2 B>c d>gf>g|e>cA>F G2:|

